images/icons/java.svg

<svg xmlns="http://www.w3.org/2000/svg" preserveAspectRatio="xMidYMid" viewBox="-45 0 346 346">
  <path fill="#5382A1" d="M82.5539491 267.472524s-13.1984291 7.675345 9.3928727 10.272581c27.3687272 3.12227 41.3565672 2.674502 71.5170912-3.033832 0 0 7.929483 4.971985 19.003578 9.278371-67.611927 28.977338-153.0191128-1.678429-99.9135419-16.51712m-8.2618182-37.813528s-14.8033164 10.957731 7.8047418 13.296175c29.2361313 3.016145 52.3245383 3.262836 92.2763633-4.430196 0 0 5.525877 5.60221 14.214982 8.665832-81.746851 23.903884-172.798138 1.885091-114.2960871-17.531811"/>
  <path fill="#E76F00" d="M143.941818 165.514705c16.659549 19.180451-4.377134 36.440437-4.377134 36.440437s42.30144-21.837266 22.874298-49.18272c-18.144349-25.501324-32.058647-38.171927 43.267723-81.8585602 0 0-118.2375559 29.5302982-61.764887 94.6008432"/>
  <path fill="#5382A1" d="M233.364015 295.441687s9.767098 8.047709-10.756655 14.273629c-39.026502 11.822546-162.4324655 15.392582-196.7141236.47104-12.3233746-5.361105 10.7864436-12.800931 18.0559127-14.362065 7.5813236-1.643986 11.9137745-1.337716 11.9137745-1.337716-13.7048436-9.654459-88.5825163 18.957032-38.0341527 27.150894 137.8527421 22.355782 251.2923931-10.066851 215.5352441-26.195782M88.9008873 190.479825s-62.7721309 14.90944-22.2291782 20.323608c17.1184873 2.291898 51.2437529 1.773382 83.0305749-.889949 25.977949-2.19136 52.062952-6.85056 52.062952-6.85056s-9.160145 3.922851-15.787287 8.448c-63.744 16.764741-186.88558536 8.965585-151.4347054-8.182691 29.9808582-14.492393 54.3576437-12.848408 54.3576437-12.848408m112.6055567 62.942488c64.79872-33.671913 34.838341-66.030313 13.9264-61.670866-5.125586 1.066822-7.410968 1.991215-7.410968 1.991215s1.902779-2.980771 5.537048-4.271011c41.370531-14.544524 73.187141 42.897222-13.354822 65.647709 0 .000931 1.002589-.895535 1.302342-1.697047"/>
  <path fill="#E76F00" d="M162.438982.37143273S198.325527 36.27008 128.402153 91.4720582c-56.0714475 44.2814838-12.786037 69.5295998-.023273 98.3766108-32.7298327-29.530298-56.7491491-55.525934-40.6351127-79.720262C111.395375 74.6132945 176.918342 57.3942691 162.438982.37143273"/>
  <path fill="#5382A1" d="M95.2683055 344.665367c62.1986905 3.981498 157.7118255-2.209047 159.9739345-31.639738 0 0-4.348276 11.156946-51.403869 20.017338-53.087884 9.990517-118.5643055 8.824088-157.3990401 2.421295.0009309-.000931 7.9499636 6.579665 48.8289746 9.201105"/>
</svg>

<?xml version="1.0" encoding="UTF-8" standalone="no"?>
<svg width="346px" height="346px" viewBox="-45 0 346 346" version="1.1" xmlns="http://www.w3.org/2000/svg" xmlns:xlink="http://www.w3.org/1999/xlink" preserveAspectRatio="xMidYMid">
	<g>
		<path d="M82.5539491,267.472524 C82.5539491,267.472524 69.35552,275.147869 91.9468218,277.745105 C119.315549,280.867375 133.303389,280.419607 163.463913,274.711273 C163.463913,274.711273 171.393396,279.683258 182.467491,283.989644 C114.855564,312.966982 29.4483782,282.311215 82.5539491,267.472524" fill="#5382A1"></path>
		<path d="M74.2921309,229.658996 C74.2921309,229.658996 59.4888145,240.616727 82.0968727,242.955171 C111.333004,245.971316 134.421411,246.218007 174.373236,238.524975 C174.373236,238.524975 179.899113,244.127185 188.588218,247.190807 C106.841367,271.094691 15.79008,249.075898 74.2921309,229.658996" fill="#5382A1"></path>
		<path d="M143.941818,165.514705 C160.601367,184.695156 139.564684,201.955142 139.564684,201.955142 C139.564684,201.955142 181.866124,180.117876 162.438982,152.772422 C144.294633,127.271098 130.380335,114.600495 205.706705,70.9138618 C205.706705,70.9138618 87.4691491,100.44416 143.941818,165.514705" fill="#E76F00"></path>
		<path d="M233.364015,295.441687 C233.364015,295.441687 243.131113,303.489396 222.60736,309.715316 C183.580858,321.537862 60.1748945,325.107898 25.8932364,310.186356 C13.5698618,304.825251 36.67968,297.385425 43.9491491,295.824291 C51.5304727,294.180305 55.8629236,294.486575 55.8629236,294.486575 C42.15808,284.832116 -32.7195927,313.443607 17.8287709,321.637469 C155.681513,343.993251 269.121164,311.570618 233.364015,295.441687" fill="#5382A1"></path>
		<path d="M88.9008873,190.479825 C88.9008873,190.479825 26.1287564,205.389265 66.6717091,210.803433 C83.7901964,213.095331 117.915462,212.576815 149.702284,209.913484 C175.680233,207.722124 201.765236,203.062924 201.765236,203.062924 C201.765236,203.062924 192.605091,206.985775 185.977949,211.510924 C122.233949,228.275665 -0.907636364,220.476509 34.5432436,203.328233 C64.5241018,188.83584 88.9008873,190.479825 88.9008873,190.479825" fill="#5382A1"></path>
		<path d="M201.506444,253.422313 C266.305164,219.7504 236.344785,187.392 215.432844,191.751447 C210.307258,192.818269 208.021876,193.742662 208.021876,193.742662 C208.021876,193.742662 209.924655,190.761891 213.558924,189.471651 C254.929455,174.927127 286.746065,232.368873 200.204102,255.11936 C200.204102,255.120291 201.206691,254.223825 201.506444,253.422313" fill="#5382A1"></path>
		<path d="M162.438982,0.371432727 C162.438982,0.371432727 198.325527,36.27008 128.402153,91.4720582 C72.3307055,135.753542 115.616116,161.001658 128.37888,189.848669 C95.6490473,160.318371 71.6297309,134.322735 87.7437673,110.128407 C111.395375,74.6132945 176.918342,57.3942691 162.438982,0.371432727" fill="#E76F00"></path>
		<path d="M95.2683055,344.665367 C157.466996,348.646865 252.980131,342.45632 255.24224,313.025629 C255.24224,313.025629 250.893964,324.182575 203.838371,333.042967 C150.750487,343.033484 85.2740655,341.867055 46.4393309,335.464262 C46.4402618,335.463331 54.3892945,342.043927 95.2683055,344.665367" fill="#5382A1"></path>
	</g>
</svg>
